svg/u1f36c.svg

<svg viewBox="0 0 128 128" xmlns="http://www.w3.org/2000/svg">
  <path d="M26.54,15.7c0,0,0.79-4.27,2.36-6.74s4.16-5.28,4.94-4.94c0.79,0.34,1.57,3.48,4.5,9.78 s7.87,14.83,7.75,20.45s-2.25,8.43-2.25,8.43s-6.05,9.99-17.5,9.06c-9.3-0.75-13.45-3.86-18.55-6.57c-2.13-1.13-4.75-1.25-4.97-2.38 c-0.22-1.12,1.1-2.95,2.14-4.16c1.75-2.04,5.46-3.28,6.93-5.91s1.48-6.62,3.86-9.97C20.17,16.56,26.54,15.7,26.54,15.7z" fill="#E0E0E0"/>
  <path d="M33.23,13.68c-0.91-0.1-2.14,2.33-1.96,4.04s1.65,4.44,3.31,7.96c1.96,4.16,3.42,9.98,5.27,9.55 c1.84-0.43,0.37-6.18-1.22-10.59C37.02,20.23,34.39,13.8,33.23,13.68z" fill="#FFFFFF"/>
  <path d="M29.17,35.06c1.49-0.72,0.8-3.98-0.37-7.96s-1.9-5.87-4.16-6.31c-2.2-0.43-3.73,0.86-4.9,2.51 s-2.02,3.61-1.96,4.71c0.06,1.1,0.37,1.84,2.02,2.51c0.99,0.4,2.5,0.88,3.98,1.84C25.49,33.46,27.51,35.85,29.17,35.06z" fill="#FFFFFF"/>
  <path d="M10.94,37.06c-1.6,0-4.29,2.08-3.8,3.61c0.55,1.72,4.27,1.62,8.69,2.51 c6.98,1.41,11.23,3.02,11.88,0.98c0.43-1.35-5.2-3.61-8.63-4.78C16.51,38.52,12.9,37.06,10.94,37.06z" fill="#FFFFFF"/>
  <path d="M81.73,81.65c-4.85,5.17-7.37,12.51-2.6,21.25c3.73,6.82,8.65,9.22,11.68,14.07 c3.03,4.85,2.67,7.81,3.45,7.74c0.77-0.07,3.24-2.53,4.5-5.21c1.27-2.67,0.77-5.07,2.04-6.61s5.49-1.76,7.95-4.71 c2.46-2.95,2.11-5.42,4.36-7.74c2.25-2.32,5.56-3.03,7.81-5.63c2.25-2.6,4.29-5.91,3.8-6.68c-0.49-0.77-2.25-0.35-7.46-1.9 c-5.21-1.55-15.69-8.3-23.5-8.86C88.27,76.97,84.9,78.28,81.73,81.65z" fill="#E0E0E0"/>
  <path d="M89.74,83.42c-0.81,1.43,7.27,3.2,11.68,6c4.41,2.8,6.87,5.45,8.55,5.45s6.01-2.44,5.66-4.19 s-3.19-1.7-4.42-2.07c-1.39-0.43-7.46-3.33-9.55-4.25C98.64,83.01,91.04,81.13,89.74,83.42z" fill="#FFFFFF"/>
  <path d="M89.31,89.88c-0.82,0.92,1.55,3.47,5.69,7.89c4.49,4.8,6.63,6.44,8.59,4.49 c1.78-1.78,0.31-3.87-3.33-6.61C97.61,93.65,90.28,88.8,89.31,89.88z" fill="#FFFFFF"/>
  <path d="M87.76,97.56c-1.3,0.47,1.24,6.85,2.09,9.59c0.85,2.75,2.48,6.19,4.18,6.19 c1.7,0,3.33-2.09,3.06-4.22c-0.27-2.13-3.8-5.87-4.76-7.04C90.97,100.42,88.61,97.25,87.76,97.56z" fill="#FFFFFF"/>
  <path d="M39.09,44.82c-6.47,6.72-8.63,13.58-7.9,22.97c0.95,12.07,14.11,27.36,29.97,27.01 c12.8-0.28,20.09-6.7,23.41-11.37c3.06-4.3,7.29-10.97,6.22-21.12c-1.28-12.18-13.96-26.76-29.25-26.85 C49.32,35.38,44.06,39.66,39.09,44.82z" fill="#FF5960"/>
  <path d="M40.82,54c-4.42,9.69-9.69,12.85-9.69,12.85s0.1,1.98,0.5,3.81c0.47,2.15,1.22,3.85,1.22,3.85 s5.65-4.17,9.13-10.22c3.78-6.57,6.2-12.13,7.15-17.09c0.95-4.96,1.37-10.22,1.37-10.22s-1.67,0.52-3.67,1.56 c-1.59,0.83-2.39,1.49-2.39,1.49S44.51,45.92,40.82,54z" fill="#FE7C84"/>
  <path d="M57.34,35.63c0,0,0.75,4.09-1.17,11.9c-0.93,3.78-2.46,8.74-5.04,14.22 c-2.31,4.92-4.53,8.43-6.46,11.34c-4.53,6.85-7.65,8.79-7.65,8.79s1.01,1.4,2.04,2.52s2.37,2.34,2.37,2.34s5.3-2.89,12.31-15.45 s8.89-20.42,9.65-25.8c0.77-5.38,0.64-9.89,0.64-9.89s-1.79-0.16-3.33-0.15C58.79,35.46,57.34,35.63,57.34,35.63z" fill="#FE7C84"/>
  <path d="M71.03,37.39c0,0-0.45,15.85-7.47,29.7c-6.53,12.88-16.6,23.78-16.6,23.78s1.4,0.91,3.26,1.72 c2.12,0.92,3.94,1.34,3.94,1.34s2.29-2.1,5.68-6.95c2.84-4.08,6.95-9.85,10.61-18.2c2.99-6.81,4.28-12,5.3-16.42 c1.63-7.05,1.38-11.62,1.38-11.62s-1.11-0.9-2.95-1.87C72.39,37.91,71.03,37.39,71.03,37.39z" fill="#FE7C84"/>
  <path d="M83.3,46.33c0,0-0.39,10.78-7.32,26.44c-2.69,6.07-5.04,9.94-7.32,13.26 c-4.21,6.12-7.5,8.77-7.5,8.77s2.79-0.09,5-0.44c2.45-0.39,4.37-1.02,4.37-1.02s5.57-5.68,10.86-17.37 c5.08-11.22,6.78-22.35,6.78-22.35s-0.75-1.76-2.17-3.82C84.9,48.2,83.3,46.33,83.3,46.33z" fill="#FE7C84"/>
  <path d="M55.7,41.92c-5.44,1.19-10.95,5.01-12.33,8.46c-1.4,3.5,1.01,5.24,3.4,4.51 c2.39-0.74,5.61-4.19,10.76-5.11c5.15-0.92,9.52-0.41,11.68,0.18s3.93,0.42,4.38-1.24c0.43-1.58-0.43-3.71-4.06-5.57 C65.53,41.11,59.7,41.05,55.7,41.92z" fill="#FFFFFF"/>
  <path d="M90.8,62.31c-1.28-12.18-13.96-26.76-29.25-26.85c-12.23-0.08-17.49,4.21-22.46,9.37 c-6.47,6.72-8.63,13.58-7.9,22.97c0.95,12.07,14.11,27.36,29.97,27.01c12.8-0.28,20.09-6.7,23.41-11.37 C87.64,79.13,91.87,72.46,90.8,62.31z M81.26,80.94c-2.88,4.04-9.18,9.6-20.26,9.84c-13.72,0.3-25.11-12.93-25.94-23.38 c-0.64-8.12,1.23-14.06,6.83-19.88c4.3-4.47,8.85-8.17,19.43-8.1c13.23,0.08,24.21,12.7,25.31,23.24 C87.57,71.45,83.9,77.22,81.26,80.94z" opacity="0.5" fill="#FFFFFF"/>
</svg>

<svg viewBox="0 0 128 128" xmlns="http://www.w3.org/2000/svg">
  <defs/>
  <path d="M26.54,15.7 C26.54,15.7 27.33,11.43 28.9,8.96 C30.47,6.49 33.06,3.68 33.84,4.02 C34.63,4.36 35.41,7.5 38.34,13.8 C41.27,20.1 46.21,28.63 46.09,34.25 C45.97,39.87 43.84,42.68 43.84,42.68 C43.84,42.68 37.79,52.67 26.34,51.74 C17.04,50.99 12.89,47.88 7.79,45.17 C5.66,44.04 3.04,43.92 2.82,42.79 C2.6,41.67 3.92,39.84 4.96,38.63 C6.71,36.59 10.42,35.35 11.89,32.72 C13.36,30.09 13.37,26.1 15.75,22.75 C20.17,16.56 26.54,15.7 26.54,15.7 Z" fill="#E0E0E0"/>
  <path d="M33.23,13.68 C32.32,13.58 31.09,16.01 31.27,17.72 C31.45,19.43 32.92,22.16 34.58,25.68 C36.54,29.84 38,35.66 39.85,35.23 C41.69,34.8 40.22,29.05 38.63,24.64 C37.02,20.23 34.39,13.8 33.23,13.68 Z" fill="#FFFFFF"/>
  <path d="M29.17,35.06 C30.66,34.34 29.97,31.08 28.8,27.1 C27.63,23.12 26.9,21.23 24.64,20.79 C22.44,20.36 20.91,21.65 19.74,23.3 C18.57,24.95 17.72,26.91 17.78,28.01 C17.84,29.11 18.15,29.85 19.8,30.52 C20.79,30.92 22.3,31.4 23.78,32.36 C25.49,33.46 27.51,35.85 29.17,35.06 Z" fill="#FFFFFF"/>
  <path d="M10.94,37.06 C9.34,37.06 6.65,39.14 7.14,40.67 C7.69,42.39 11.41,42.29 15.83,43.18 C22.81,44.59 27.06,46.2 27.71,44.16 C28.14,42.81 22.51,40.55 19.08,39.38 C16.51,38.52 12.9,37.06 10.94,37.06 Z" fill="#FFFFFF"/>
  <path d="M81.73,81.65 C76.88,86.82 74.36,94.16 79.13,102.9 C82.86,109.72 87.78,112.12 90.81,116.97 C93.84,121.82 93.48,124.78 94.26,124.71 C95.03,124.64 97.5,122.18 98.76,119.5 C100.03,116.83 99.53,114.43 100.8,112.89 C102.07,111.35 106.29,111.13 108.75,108.18 C111.21,105.23 110.86,102.76 113.11,100.44 C115.36,98.12 118.67,97.41 120.92,94.81 C123.17,92.21 125.21,88.9 124.72,88.13 C124.23,87.36 122.47,87.78 117.26,86.23 C112.05,84.68 101.57,77.93 93.76,77.37 C88.27,76.97 84.9,78.28 81.73,81.65 Z" fill="#E0E0E0"/>
  <path d="M89.74,83.42 C88.93,84.85 97.01,86.62 101.42,89.42 C105.83,92.22 108.29,94.87 109.97,94.87 C111.65,94.87 115.98,92.43 115.63,90.68 C115.28,88.93 112.44,88.98 111.21,88.61 C109.82,88.18 103.75,85.28 101.66,84.36 C98.64,83.01 91.04,81.13 89.74,83.42 Z" fill="#FFFFFF"/>
  <path d="M89.31,89.88 C88.49,90.8 90.86,93.35 95,97.77 C99.49,102.57 101.63,104.21 103.59,102.26 C105.37,100.48 103.9,98.39 100.26,95.65 C97.61,93.65 90.28,88.8 89.31,89.88 Z" fill="#FFFFFF"/>
  <path d="M87.76,97.56 C86.46,98.03 89,104.41 89.85,107.15 C90.7,109.9 92.33,113.34 94.03,113.34 C95.73,113.34 97.36,111.25 97.09,109.12 C96.82,106.99 93.29,103.25 92.33,102.08 C90.97,100.42 88.61,97.25 87.76,97.56 Z" fill="#FFFFFF"/>
  <path d="M39.09,44.82 C32.62,51.54 30.46,58.4 31.19,67.79 C32.14,79.86 45.3,95.15 61.16,94.8 C73.96,94.52 81.25,88.1 84.57,83.43 C87.63,79.13 91.86,72.46 90.79,62.31 C89.51,50.13 76.83,35.55 61.54,35.46 C49.32,35.38 44.06,39.66 39.09,44.82 Z" fill="#FF5960"/>
  <path d="M40.82,54 C36.4,63.69 31.13,66.85 31.13,66.85 C31.13,66.85 31.23,68.83 31.63,70.66 C32.1,72.81 32.85,74.51 32.85,74.51 C32.85,74.51 38.5,70.34 41.98,64.29 C45.76,57.72 48.18,52.16 49.13,47.2 C50.08,42.24 50.5,36.98 50.5,36.98 C50.5,36.98 48.83,37.5 46.83,38.54 C45.24,39.37 44.44,40.03 44.44,40.03 C44.44,40.03 44.51,45.92 40.82,54 Z" fill="#FE7C84"/>
  <path d="M57.34,35.63 C57.34,35.63 58.09,39.72 56.17,47.53 C55.24,51.31 53.71,56.27 51.13,61.75 C48.82,66.67 46.6,70.18 44.67,73.09 C40.14,79.94 37.02,81.88 37.02,81.88 C37.02,81.88 38.03,83.28 39.06,84.4 C40.09,85.52 41.43,86.74 41.43,86.74 C41.43,86.74 46.73,83.85 53.74,71.29 C60.75,58.73 62.63,50.87 63.39,45.49 C64.16,40.11 64.03,35.6 64.03,35.6 C64.03,35.6 62.24,35.44 60.7,35.45 C58.79,35.46 57.34,35.63 57.34,35.63 Z" fill="#FE7C84"/>
  <path d="M71.03,37.39 C71.03,37.39 70.58,53.24 63.56,67.09 C57.03,79.97 46.96,90.87 46.96,90.87 C46.96,90.87 48.36,91.78 50.22,92.59 C52.34,93.51 54.16,93.93 54.16,93.93 C54.16,93.93 56.45,91.83 59.84,86.98 C62.68,82.9 66.79,77.13 70.45,68.78 C73.44,61.97 74.73,56.78 75.75,52.36 C77.38,45.31 77.13,40.74 77.13,40.74 C77.13,40.74 76.02,39.84 74.18,38.87 C72.39,37.91 71.03,37.39 71.03,37.39 Z" fill="#FE7C84"/>
  <path d="M83.3,46.33 C83.3,46.33 82.91,57.11 75.98,72.77 C73.29,78.84 70.94,82.71 68.66,86.03 C64.45,92.15 61.16,94.8 61.16,94.8 C61.16,94.8 63.95,94.71 66.16,94.36 C68.61,93.97 70.53,93.34 70.53,93.34 C70.53,93.34 76.1,87.66 81.39,75.97 C86.47,64.75 88.17,53.62 88.17,53.62 C88.17,53.62 87.42,51.86 86,49.8 C84.9,48.2 83.3,46.33 83.3,46.33 Z" fill="#FE7C84"/>
  <path d="M55.7,41.92 C50.26,43.11 44.75,46.93 43.37,50.38 C41.97,53.88 44.38,55.62 46.77,54.89 C49.16,54.15 52.38,50.7 57.53,49.78 C62.68,48.86 67.05,49.37 69.21,49.96 C71.37,50.55 73.14,50.38 73.59,48.72 C74.02,47.14 73.16,45.01 69.53,43.15 C65.53,41.11 59.7,41.05 55.7,41.92 Z" fill="#FFFFFF"/>
  <path d="M90.8,62.31 C89.52,50.13 76.84,35.55 61.55,35.46 C49.32,35.38 44.06,39.67 39.09,44.83 C32.62,51.55 30.46,58.41 31.19,67.8 C32.14,79.87 45.3,95.16 61.16,94.81 C73.96,94.53 81.25,88.11 84.57,83.44 C87.64,79.13 91.87,72.46 90.8,62.31 Z M81.26,80.94 C78.38,84.98 72.08,90.54 61,90.78 C47.28,91.08 35.89,77.85 35.06,67.4 C34.42,59.28 36.29,53.34 41.89,47.52 C46.19,43.05 50.74,39.35 61.32,39.42 C74.55,39.5 85.53,52.12 86.63,62.66 C87.57,71.45 83.9,77.22 81.26,80.94 Z" fill="#FFFFFF" opacity="0.5"/>
</svg>
